remix/Design/clockwise-2-line.svg

<svg viewBox="0 0 24 24" fill="currentColor" xmlns="http://www.w3.org/2000/svg"><path d="M10.5858 4.00003L8.75736 2.1716L10.1716 0.757385L14.4142 5.00003L10.1716 9.24267L8.75736 7.82845L10.5858 6.00003H8C6.34315 6.00003 5 7.34317 5 9.00003V13H3V9.00003C3 6.2386 5.23858 4.00003 8 4.00003H10.5858ZM9 11C9 10.4477 9.44772 10 10 10H20C20.5523 10 21 10.4477 21 11V21C21 21.5523 20.5523 22 20 22H10C9.44772 22 9 21.5523 9 21V11ZM11 12V20H19V12H11Z"/></svg>

<svg viewBox="0 0 24 24" xmlns="http://www.w3.org/2000/svg"><path fill="none" d="M0 0h24v24H0Z"/><path d="M10.586 4l-1.83-1.83 1.41-1.42 4.24 4.243 -4.25 4.243 -1.42-1.415 1.82-1.83H7.96v0c-1.66 0-3 1.34-3 3v4h-2v-4 0c0-2.77 2.23-5 5-5h2.58Zm-1.59 7v0c0-.56.44-1 1-1h10v0c.55 0 1 .44 1 1v10 0c0 .55-.45 1-1 1h-10v0c-.56 0-1-.45-1-1V11Zm2 1v8h8v-8h-8Z"/></svg>
